!!!!SEGMENT: pl-wnifc--13846--070_anonim--70-oj-ty-diwczyno-horda-ja.krn
!!!kernsource:
!!!cenid: 18xx:3292
!!!COM: Anonim
!!!COM-rismid: pe30004985
!!!CDT:
!!!CNT:
!!!OTL: 70. Oj ty diwczyno horda ja
!!!PDT: 1833
!!!AGN:
!!!SMS-siglum: PL-Wnifc
!!!SMS-shelfmark: 13846
!!!SMS-shelfwork: 070 W
!!!NIFC-rismid: 1001037233
!!!URL-scan: http://repozytorium.nifc.pl/skany/pl-wnifc-nut--13846
!!!ONB-nifc:
!!!key: C
!!!OMD: Andante
**kern	**kern	**kern	**text
*part2	*part2	*part1	*part1
*staff3	*staff2	*staff1	*staff1
*I"FORTEPIAN.	*I"FORTEPIAN.	*I"GŁOS.	*
*Ipiano	*Ipiano	*Ivox	*
*ICklav	*ICklav	*ICvox	*
*IGacmp	*IGacmp	*IGsolo	*
*clefF4	*clefG2	*clefG2	*
*k[]	*k[]	*k[]	*
*C:	*C:	*C:	*
*M2/4	*M2/4	*M2/4	*
=1-	=1-	=1-	=1-
!	!	!LO:TX:a:t=E.7.	!
4C/ 4CC/	16r	4ee\	Oj
.	(16G/LL	.	.
.	16c/	.	.
.	16e/JJ)	.	.
4C/ 4CC/	16r	8ff\	ty
.	(16G/LL	.	.
.	16B/	8dd\	diw-
.	16f/JJ)	.	.
=2	=2	=2	=2
4C/ 4CC/	16r	(8.cc\L	-czy-
.	(16G/LL	.	.
.	16c/	.	.
.	16e/JJ)	16g\Jk)	.
4C/ 4CC/	16f/LL	4g/	-no
.	(16G/	.	.
.	16B/	.	.
.	16d/JJ)	.	.
=3	=3	=3	=3
2C/ 2CC/	(16e/LL 16c/	8ee\	hor-
.	16G/)	.	.
.	(16g/ 16e/	8gg\	-da
.	16G/JJ)	.	.
.	(16e/LL 16c/	8ee\	ja
.	16G/)	.	.
.	(16g/ 16e/	8gg\	i
.	16G/JJ)	.	.
!!LO:LB:g=original
=4	=4	=4	=4
2GG/ 2GGG/	(16g/LL 16e/	(8gg\L	pysz-
.	16G/)	.	.
.	(16f/ 16d/	8ff\	.
.	16G/JJ)	.	.
.	(16e/LL 16c/	8ee\J)	.
.	16G/)	.	.
.	(16d/ 16B/	8dd\	-na
.	16G/JJ)	.	.
=5	=5	=5	=5
4C/ 4CC/	(16c/LL	4ee\	czom
.	16G/	.	.
.	16c/	.	.
.	16e/JJ)	.	.
4C/ 4CC/	16r	8.ff\	ty
.	(16G/LL	.	.
.	16B/	.	.
.	16f/JJ)	16dd\	do
=6	=6	=6	=6
4C/ 4CC/	16r	(8.cc\L	me-
.	(16G/LL	.	.
.	16c/	.	.
.	16e/JJ)	16g\Jk)	.
4E/ 4EE/	16r	4g\	-ne
.	(16G/LL	.	.
.	16c/	.	.
.	16g/JJ)	.	.
!!LO:LB:g=original
=7	=7	=7	=7
8F/ 8FF/	16r	8.a/	zwe-
.	(16A/LL	.	.
8r	16d/	.	.
.	16a/JJ)	16cc/	-cze-
8G/ 8GG/	16r	8b\	-ra
.	(16d/LL	.	.
8r	16f/	8dd\	ne
.	16b\JJ)	.	.
=8	=8	=8	=8
*	*^	*	*
[4G\ [4C\	4dd/	[>4g\ [4e\	4dd\	wyj-
8G\] 8C\]	8cc/	8g\] 8e\]	8cc\	-szła.
8r	8r	8r	8r	.
*	*v	*v	*	*
==	==	==	==
*-	*-	*-	*-
!!!system-decoration: s1{(s2,s3)}
!!!RDF**kern: > = above
!!!ENC: Marta Lawrence
!!!END: 2021-11-10
